azure-patterns/svg-devops-advanced-workflows.svg

<svg xmlns="http://www.w3.org/2000/svg" viewBox="0 0 80 80">
                                
                            
    <rect width="80" height="80" fill="black" fill-opacity="0"></rect>
    <circle cx="40" cy="40" r="40" fill="#2560E0" fill-opacity="0.05"></circle>
    <path d="M31 24.25H25.8496L31.791 30.209L30.209 31.791L24.25 25.8496V31H22V22H31V24.25ZM49 22H58V31H55.75V25.8496L49.791 31.791L48.209 30.209L54.1504 24.25H49V22ZM30.209 48.209L31.791 49.791L25.8496 55.75H31V58H22V49H24.25V54.1504L30.209 48.209ZM55.75 54.1504V49H58V58H49V55.75H54.1504L48.209 49.791L49.791 48.209L55.75 54.1504ZM33.25 46.75V33.25H46.75V46.75H33.25ZM35.5 35.5V44.5H44.5V35.5H35.5Z" fill="#2560E0"></path>
</svg>

<svg xmlns="http://www.w3.org/2000/svg" viewBox="0 0 80 80"><path fill="none" d="M0 0h80v80H0z"/><circle cx="40" cy="40" r="40" fill="#2560E0" fill-opacity=".05"/><path d="M31 24.25h-5.15l5.941 5.959-1.582 1.582-5.959-5.941V31H22v-9h9v2.25zM49 22h9v9h-2.25v-5.15l-5.959 5.941-1.582-1.582 5.941-5.959H49V22zM30.209 48.209l1.582 1.582-5.941 5.959H31V58h-9v-9h2.25v5.15l5.959-5.941zM55.75 54.15V49H58v9h-9v-2.25h5.15l-5.941-5.959 1.582-1.582 5.959 5.941zm-22.5-7.4v-13.5h13.5v13.5h-13.5zM35.5 35.5v9h9v-9h-9z" fill="#2560E0"/></svg>
